!!!SOCIAL_FUNCTION:	deer dance songs
!!!PDT:	1932
!!!OTL: No_75_The_Redbird_Speaks_(b).krn
!!!REG: Southwest
!!!LANG: Non-Tone
!!!LING_GROUP: Yuman-Cochimi
**kern
*staff1
=1-
*clefF4
*k[f#c#g#d#a#]
*M2/4
4G#\
4G#\
=2||
*M3/4
4d#\
8.B;\L
16A#\Jk
8.B\L
16A#\Jk
=3||
*M2/4
4..B\
16A#\
=4||
*M3/4
4G#\
2r
=5||
*M2/4
4G#\
4G#\
=6||
*M3/4
4d#\
8.B;\L
16A#\Jk
8B\L
16A#\L
16B\JJ
=7||
*M2/4
4.B\
8A#\
=8||
*M3/4
4G#\
4r
8r
8G#\
=9||
*M2/4
4A#\
4B\
=10||
*M3/4
4B\
12A#\L
12B\
12G#\J
8.A#\L
16B\Jk
=11||
*M2/4
4..G#\
16E\
=12||
*M3/4
4G#\
2r
=13||
*M2/4
4A#\
4B\
=14||
*M3/4
4B\
12A#\L
12B\
12G#\J
8.A#\L
16B\Jk
=15||
*M2/4
4..G#\
16E\
=16||
*M3/4
4G#\
4r
8.r
16D#\
=17||
*M2/4
4G#\
4A#\
=18
16A#\LK
8.G#\J
4G#\
=19
4G#\
4G#\
=20||
*M3/4
4G#\
12G#\L
12G#\
12E\J
8.G#\L
16E\Jk
=21
2G#\
4r
=22||
*M2/4
4A#\
4B\
=23||
*M3/4
4B\
12A#\L
12B\
12G#\J
8.A#\L
16B\Jk
=24||
*M2/4
4..G#\
16E\
=25||
*M3/4
4G#\
2r
=26||
*M2/4
4A#\
4B\
=27||
*M3/4
4B\
12A#\L
12B\
12G#\J
8.A#\L
16B\Jk
=28||
*M2/4
4..G#\
16E\
=29||
*M3/4
4G#\
4r
8r
8D#\
=30||
*M2/4
4G#\
4A#\
=31
4D#\
4G#\
=32
4G#\
4G#\
=33||
*M3/4
4G#\
12G#\L
12G#\
12E\J
8.G#\L
16E\Jk
=34
2G#\
4r
==
*-
